X:525
T:Debbie Ann's Reel
C:Ronnie Jamieson
B:The Nineties Collection
Z:Nigel Gatherer
M:4/4
L:1/8
K:A
z2 | A,2 CE  EA,CE | D2 FA ADFA | E2 GB BEGB | cdcB AFEC  |
     A,2 CE  EA,CE | D2 FA ADFA | E2 GB BEGB | cdcB A2   :|
e2 | a2  c'a ecAc  | d2 fd AFDF | G2 BG EGBd | cBcd e^deg |
     a2  c'a ecAc  | d2 fd AFDF | G2 BG EGBd | aece A2  :|]
